icons-rebrand/svg/webex-teams-light.svg

<svg xmlns="http://www.w3.org/2000/svg" width="32" height="32" viewBox="0 0 32 32"><path d="M29.5148 18.8171C29.4714 17.898 29.1399 17.0158 28.5675 16.2954C27.995 15.5751 27.2104 15.053 26.3248 14.8031C26.7461 14.4348 27.045 13.9467 27.1816 13.404C27.3182 12.8614 27.286 12.2899 27.0893 11.766C26.8926 11.2422 26.5408 10.7908 26.0807 10.4721C25.6207 10.1535 25.0744 9.98275 24.5148 9.98275C23.9552 9.98275 23.409 10.1535 22.9489 10.4721C22.4889 10.7908 22.1371 11.2422 21.9403 11.766C21.7436 12.2899 21.7114 12.8614 21.848 13.404C21.9846 13.9467 22.2835 14.4348 22.7048 14.8031C22.0278 15.0271 21.4048 15.3901 20.8748 15.8681C20.105 15.3903 19.2672 15.0323 18.3898 14.8061C19.2206 14.2899 19.8606 13.517 20.2129 12.6045C20.5652 11.692 20.6105 10.6896 20.3421 9.74898C20.0737 8.8084 19.5061 7.98088 18.7253 7.39174C17.9445 6.80259 16.993 6.48389 16.0148 6.48389C15.0367 6.48389 14.0852 6.80259 13.3044 7.39174C12.5236 7.98088 11.956 8.8084 11.6876 9.74898C11.4192 10.6896 11.4645 11.692 11.8168 12.6045C12.169 13.517 12.809 14.2899 13.6398 14.8061C12.7544 15.0345 11.9092 15.3974 11.1338 15.8821C10.6029 15.3991 9.97686 15.0326 9.29584 14.8061C9.71714 14.4378 10.016 13.9497 10.1526 13.407C10.2893 12.8644 10.257 12.2929 10.0603 11.769C9.86362 11.2452 9.51176 10.7938 9.05174 10.4751C8.59172 10.1565 8.04544 9.98575 7.48584 9.98575C6.92624 9.98575 6.37996 10.1565 5.91994 10.4751C5.45992 10.7938 5.10806 11.2452 4.91135 11.769C4.71464 12.2929 4.68243 12.8644 4.81903 13.407C4.95563 13.9497 5.25454 14.4378 5.67584 14.8061C4.79034 15.0561 4.00588 15.5782 3.43341 16.2986C2.86094 17.0189 2.52945 17.901 2.48584 18.8201C2.48584 19.3291 2.79084 20.0301 4.24284 20.4841C5.29784 20.7791 6.38984 20.9201 7.48584 20.9021L7.62684 20.9001C7.55549 21.2864 7.51801 21.6783 7.51484 22.0711C7.51484 22.8681 8.00884 23.9781 10.3598 24.7431C12.1968 25.2781 14.1028 25.5331 16.0158 25.5001C20.2458 25.5001 24.5158 24.4401 24.5158 22.0711C24.5123 21.6765 24.4742 21.283 24.4018 20.8951C24.4398 20.8951 24.4768 20.8981 24.5148 20.8981C26.9318 20.8981 29.5148 20.3511 29.5148 18.8181V18.8171ZM24.5148 10.9991C24.9791 10.9991 25.4243 11.1835 25.7526 11.5118C26.0809 11.8401 26.2653 12.2853 26.2653 12.7496C26.2653 13.2139 26.0809 13.6591 25.7526 13.9874C25.4243 14.3157 24.9791 14.5001 24.5148 14.5001C24.0506 14.5001 23.6053 14.3157 23.2771 13.9874C22.9488 13.6591 22.7643 13.2139 22.7643 12.7496C22.7643 12.2853 22.9488 11.8401 23.2771 11.5118C23.6053 11.1835 24.0506 10.9991 24.5148 10.9991ZM12.5148 10.9991C12.5148 10.5394 12.6054 10.0842 12.7813 9.65952C12.9572 9.23482 13.2151 8.84893 13.5401 8.52388C13.8652 8.19883 14.2511 7.94098 14.6758 7.76507C15.1005 7.58915 15.5556 7.49861 16.0153 7.49861C16.475 7.49861 16.9302 7.58915 17.3549 7.76507C17.7796 7.94098 18.1655 8.19883 18.4906 8.52388C18.8156 8.84893 19.0735 9.23482 19.2494 9.65952C19.4253 10.0842 19.5158 10.5394 19.5158 10.9991C19.5158 11.9274 19.1471 12.8176 18.4907 13.474C17.8343 14.1304 16.9441 14.4991 16.0158 14.4991C15.0876 14.4991 14.1973 14.1304 13.541 13.474C12.8846 12.8176 12.5158 11.9274 12.5158 10.9991H12.5148ZM7.48484 11.0021C7.9491 11.0021 8.39435 11.1865 8.72263 11.5148C9.05091 11.8431 9.23534 12.2883 9.23534 12.7526C9.23534 13.2169 9.05091 13.6621 8.72263 13.9904C8.39435 14.3187 7.9491 14.5031 7.48484 14.5031C7.02058 14.5031 6.57533 14.3187 6.24705 13.9904C5.91877 13.6621 5.73434 13.2169 5.73434 12.7526C5.73434 12.2883 5.91877 11.8431 6.24705 11.5148C6.57533 11.1865 7.02058 11.0021 7.48484 11.0021ZM7.87784 19.8901C7.74684 19.8931 7.62284 19.9021 7.48584 19.9021C5.00784 19.9021 3.48584 19.2721 3.48584 18.8201C3.48584 16.9901 5.27984 15.5021 7.48584 15.5021C8.51195 15.4892 9.51074 15.8328 10.3118 16.4741C9.19342 17.3593 8.34936 18.5439 7.87784 19.8901ZM16.0158 24.5001C11.8098 24.5001 8.51584 23.4331 8.51584 22.0711C8.51584 18.4481 11.8788 15.5001 16.0158 15.5001C20.1508 15.5001 23.5158 18.4481 23.5158 22.0711C23.5158 23.4331 20.2208 24.5001 16.0158 24.5001ZM21.7028 16.4601C22.5017 15.8259 23.4949 15.4865 24.5148 15.4991C26.7208 15.4991 28.5148 16.9871 28.5148 18.8171C28.5148 19.2681 26.9928 19.8981 24.5148 19.8981C24.3868 19.8981 24.2738 19.8901 24.1508 19.8871C23.677 18.5357 22.8278 17.3473 21.7028 16.4611V16.4601Z"/></svg>

<svg data-name="Layer 1" xmlns="http://www.w3.org/2000/svg" viewBox="0 0 32 32"><path d="M29.515 18.817a4.384 4.384 0 0 0-3.19-4.014 2.749 2.749 0 1 0-3.621 0 5.182 5.182 0 0 0-1.829 1.065 8.947 8.947 0 0 0-2.485-1.062 4.5 4.5 0 1 0-4.749 0 8.956 8.956 0 0 0-2.507 1.076A5.154 5.154 0 0 0 9.3 14.805a2.75 2.75 0 1 0-3.62 0 4.386 4.386 0 0 0-3.19 4.015c0 .509.3 1.21 1.757 1.664a11.349 11.349 0 0 0 3.243.418h.141a6.761 6.761 0 0 0-.112 1.171c0 .8.494 1.907 2.845 2.672a19.049 19.049 0 0 0 5.656.757c4.23 0 8.5-1.06 8.5-3.429a6.82 6.82 0 0 0-.12-1.173h.113c2.419 0 5.002-.549 5.002-2.083Zm-6.237-7.3a1.748 1.748 0 1 1-.513 1.237 1.75 1.75 0 0 1 .513-1.242Zm-9.736 1.961a3.5 3.5 0 1 1 2.473 1.022 3.5 3.5 0 0 1-2.473-1.027Zm-7.293-1.963a1.748 1.748 0 1 1-.513 1.237 1.75 1.75 0 0 1 .513-1.237Zm1.629 8.375c-.131 0-.255.012-.392.012-2.478 0-4-.63-4-1.082 0-1.83 1.794-3.318 4-3.318a4.436 4.436 0 0 1 2.826.972 7.531 7.531 0 0 0-2.434 3.416Zm8.138 4.61c-4.206 0-7.5-1.067-7.5-2.429 0-3.623 3.364-6.571 7.5-6.571s7.5 2.948 7.5 6.571c0 1.362-3.295 2.429-7.5 2.429Zm8.135-4.613a7.532 7.532 0 0 0-2.451-3.426 4.435 4.435 0 0 1 2.812-.962c2.206 0 4 1.488 4 3.318 0 .451-1.522 1.081-4 1.081-.125.002-.238-.008-.361-.011Z" style="fill:#0f0f0f"/></svg>
